media/costumes/D-glow.svg

<svg width="68" height="71" xmlns="http://www.w3.org/2000/svg"><path fill="#0CC" d="M66.979 42.26l-.03.3c-.64 5.02-2.87 9.67-6.63 13.82-.04.05-.09.1-.14.15-2.76 2.93-6.44 5.51-11.25 7.88-7.44 3.65-14.43 5.59-20.82 5.78-1 .06-2.59.13-4.75.22-3.52.14-3.63.14-3.92.14h-4.26a13.723 13.723 0 0 1-9.24-2.31c-3.2-2.18-5.27-5.52-5.83-9.41-.32-2.27.07-4.59 1.13-6.63 1.94-3.75 5.3-6.37 9.38-7.45-.23-3.94-.58-10.01-1.04-18.22-.36-.13-.71-.27-1.06-.42-5.09-2.2-8.25-6.81-8.25-12.03 0-1.96.45-3.88 1.34-5.72C4.079 3.12 9.329 0 15.659 0c.86 0 1.94.07 3.6.22l.25.03.26.03c.3-.02.61-.03.95-.03.91 0 2.43.06 7.42.49 3.61.34 6.5.75 8.91 1.24.06.02.13.03.19.04 10.28 2.31 18.76 8.72 25.23 19.07l.06.12c1.3 2.14 2.49 4.93 3.72 8.77.01.04.02.07.03.1.99 3.2 1.21 7.07.7 12.18z"/><path fill="#FFF" d="M56.035 41.169c-.352 2.757-1.643 5.366-3.871 7.829-1.818 1.935-4.516 3.782-8.092 5.541-6.1 2.991-11.582 4.546-16.448 4.662-.938.06-2.507.132-4.706.22-2.199.088-3.357.132-3.475.132H14.43c-.88.177-1.643.045-2.287-.396-.645-.439-1.025-1.069-1.144-1.891.822-1.584 2.433-2.258 4.838-2.023 3.752.352 5.894.439 6.421.264 0-1.289-.059-3.02-.176-5.189a763.396 763.396 0 0 0-.439-5.454c-.294-4.926-.792-13.75-1.495-26.476-.06-.88-.206-1.524-.44-1.936-.294-.176-.675-.176-1.144 0-.586.176-1.29.264-2.11.264-1.291 0-2.479-.233-3.562-.703-1.085-.469-1.627-1.113-1.627-1.936 0-.293.088-.615.264-.968.646-1.407 2.022-2.11 4.134-2.11.469 0 1.319.059 2.551.176.997.118 1.729.146 2.199.088.469-.058 2.727.088 6.772.439 3.108.294 5.659.646 7.653 1.056 7.329 1.643 13.427 6.363 18.296 14.162.82 1.35 1.699 3.489 2.639 6.421.526 1.701.614 4.309.262 7.828zm-6.509 3.694a12 12 0 0 0 1.76-6.333c0-5.511-3.021-10.995-9.06-16.448-.763-.704-2.435-1.76-5.014-3.167-3.461-1.816-7.419-2.814-11.875-2.99.586 13.488 1.144 23.456 1.671 29.906.234 2.111.586 5.249 1.056 9.412 3.049.176 6.51-.513 10.38-2.067 3.87-1.553 7.153-3.62 9.852-6.201.056-.058.468-.762 1.23-2.112z"/></svg>

<svg version="1.1" width="68" height="71" xmlns="http://www.w3.org/2000/svg" xmlns:xlink="http://www.w3.org/1999/xlink">
  <!-- Exported by Scratch - http://scratch.mit.edu/ -->
  <g id="ID0.37196288956329226">
    <g id="ID0.4378406126052141">
      <g id="ID0.6158824115991592">
        <path id="ID0.1634503724053502" fill="#00CCCC" d="M 66.979 42.260 C 66.969 42.360 66.959 42.460 66.949 42.560 C 66.309 47.580 64.079 52.230 60.319 56.380 C 60.279 56.430 60.229 56.480 60.179 56.530 C 57.419 59.460 53.739 62.040 48.929 64.410 C 41.489 68.060 34.499 70 28.109 70.190 C 27.109 70.250 25.519 70.320 23.359 70.410 C 19.839 70.550 19.729 70.550 19.439 70.550 L 15.179 70.550 C 14.679 70.600 14.189 70.630 13.699 70.630 C 10.909 70.630 8.229 69.800 5.939 68.240 C 2.739 66.060 0.669 62.720 0.109 58.830 C -0.211 56.560 0.179 54.240 1.239 52.200 C 3.179 48.450 6.539 45.830 10.619 44.750 C 10.389 40.810 10.039 34.740 9.579 26.530 C 9.219 26.400 8.869 26.260 8.519 26.110 C 3.429 23.910 0.269 19.300 0.269 14.080 C 0.269 12.120 0.719 10.200 1.609 8.360 C 4.079 3.120 9.329 0 15.659 0 C 16.519 0 17.599 0.070 19.259 0.220 C 19.339 0.230 19.419 0.240 19.509 0.250 C 19.599 0.260 19.689 0.270 19.769 0.280 C 20.069 0.260 20.379 0.250 20.719 0.250 C 21.629 0.250 23.149 0.310 28.139 0.740 C 31.749 1.080 34.639 1.490 37.049 1.980 C 37.109 2 37.179 2.010 37.239 2.020 C 47.519 4.330 55.999 10.740 62.469 21.090 C 62.489 21.130 62.509 21.170 62.529 21.210 C 63.829 23.350 65.019 26.140 66.249 29.980 C 66.259 30.020 66.269 30.050 66.279 30.080 C 67.269 33.280 67.489 37.150 66.979 42.260 Z "/>
      </g>
    </g>
    <g id="ID0.20347949722781777">
      <path id="ID0.4919582838192582" fill="#FFFFFF" d="M 56.035 41.169 C 55.683 43.926 54.392 46.535 52.164 48.998 C 50.346 50.933 47.648 52.780 44.072 54.539 C 37.972 57.530 32.490 59.085 27.624 59.201 C 26.686 59.261 25.117 59.333 22.918 59.421 C 20.719 59.509 19.561 59.553 19.443 59.553 L 14.430 59.553 C 13.550 59.730 12.787 59.598 12.143 59.157 C 11.498 58.718 11.118 58.088 10.999 57.266 C 11.821 55.682 13.432 55.008 15.837 55.243 C 19.589 55.595 21.731 55.682 22.258 55.507 C 22.258 54.218 22.199 52.487 22.082 50.318 C 21.848 47.327 21.700 45.510 21.643 44.864 C 21.349 39.938 20.851 31.114 20.148 18.388 C 20.088 17.508 19.942 16.864 19.708 16.452 C 19.414 16.276 19.033 16.276 18.564 16.452 C 17.978 16.628 17.274 16.716 16.454 16.716 C 15.163 16.716 13.975 16.483 12.892 16.013 C 11.807 15.544 11.265 14.900 11.265 14.077 C 11.265 13.784 11.353 13.462 11.529 13.109 C 12.175 11.702 13.551 10.999 15.663 10.999 C 16.132 10.999 16.982 11.058 18.214 11.175 C 19.211 11.293 19.943 11.321 20.413 11.263 C 20.882 11.205 23.140 11.351 27.185 11.702 C 30.293 11.996 32.844 12.348 34.838 12.758 C 42.167 14.401 48.265 19.121 53.134 26.920 C 53.954 28.270 54.833 30.409 55.773 33.341 C 56.299 35.042 56.387 37.650 56.035 41.169 Z M 49.526 44.863 C 50.698 42.928 51.286 40.817 51.286 38.530 C 51.286 33.019 48.265 27.535 42.226 22.082 C 41.463 21.378 39.791 20.322 37.212 18.915 C 33.751 17.099 29.793 16.101 25.337 15.925 C 25.923 29.413 26.481 39.381 27.008 45.831 C 27.242 47.942 27.594 51.080 28.064 55.243 C 31.113 55.419 34.574 54.730 38.444 53.176 C 42.314 51.623 45.597 49.556 48.296 46.975 C 48.352 46.917 48.764 46.213 49.526 44.863 Z "/>
    </g>
  </g>
</svg>
